X: 2407
T: MY OLD KENTUCKY HOME
Q: "Sand Jig."
R: air, march
B: James Kerr "Merry Melodies" v.2 p.46 #407
Z: 2016 John Chambers <jc:trillian.mit.edu>
M: C
L: 1/8
K: G
(DG) |\
B2B2 G2(AB) | cBce d2B2 | B3A G2(FG) | AD^CD EFGA |\
B2B2 G2(AB) | cBce d2(GA) | BGcB A2A>F | G2[g2B2] [g2B2] :|
(GB) |:\
d3B cBce | d2 B4 A2 | G3A G2E2 | G6 (GA) |\
B2B2 G2(AB) | cBce d2(GA) | BGcB A2A>F |\
[1 GDEF GABc :|[2 G2[g2B2] [g2B2] :|

%%sep 1 1 500
%%sep 1 1 500

